!!!COM: Mozart, Wolfgang Amadeus
!!!OTL: String Quartet No. 8 in F Major
!!!OMD: Allegro
!!!OMV: 4
!!!SCT1: K<sup>1</sup> 168
!!!SCA: Chronologisch-thematisches Verzeichnis sämtlicher Tonwerke Wolfgang Amade Mozarts (L. von Köchel; 1862, 2/1905, 3/1937, 1947)
!!!SCT2: K<sup>6</sup> 168
!!!YOR: Breitkopf & Härtel Edition
!!!ENC: Frances Bennion
!!!CDT: 1756/1/27/-1791/12/5/
!!!OCY: Österreich
!!!YEC: Copyright (c) 1994, 2000 Center for Computer Assisted Research in the Humanities
!!!YEM: Rights to all derivative editions reserved.
!!!YEM: Refer to licensing agreement for further details.
!!!YEN: United States of America
**kern	**kern	**kern	**kern
*k[b-]	*k[b-]	*k[b-]	*k[b-]
*F:	*F:	*F:	*F:
*clefC	*clefF	*clefG	*clefG
*M2/4	*M2/4	*M2/4	*M2/4
2r	2r	2r	2cc
=2	=2	=2	=2
2r	2r	2r	16a
.	.	.	16b-
.	.	.	16a
.	.	.	16g
.	.	.	8f
.	.	.	8ff
=3	=3	=3	=3
2r	2r	2r	16dd
.	.	.	16ee
.	.	.	16dd
.	.	.	16cc
.	.	.	16b-
.	.	.	16cc
.	.	.	16b-
.	.	.	16a
=4	=4	=4	=4
2r	2r	2r	16g
.	.	.	16a
.	.	.	16g
.	.	.	16f
.	.	.	8e
.	.	.	8cc
=5	=5	=5	=5
2r	2r	2f	16a
.	.	.	16g
.	.	.	16f
.	.	.	16e
.	.	.	16f
.	.	.	16g
.	.	.	16a
.	.	.	16b
=6	=6	=6	=6
2r	2r	16e	16cc
.	.	16f	16b
.	.	16e	16cc
.	.	16d	16dd
.	.	8c	16ee
.	.	.	16ff
.	.	8cc	16gg
.	.	.	16ee
=7	=7	=7	=7
2r	2r	16a	16ff
.	.	16b-	16gg
.	.	16a	16ff
.	.	16g	16ee
.	.	16f	16dd
.	.	16g	16ee
.	.	16f	16dd
.	.	16e	16cc
=8	=8	=8	=8
2r	2r	16d	16b
.	.	16e	16cc
.	.	16d	16b
.	.	16c	16a
.	.	8B	16g
.	.	.	16a
.	.	8f	16b
.	.	.	16g
=9	=9	=9	=9
2r	2c	16e	8cc
.	.	16d	.
.	.	16c	16e
.	.	16B	16d
.	.	16c	16e
.	.	16d	16f
.	.	16e	16g
.	.	16c	16e
=10	=10	=10	=10
2r	16A	16f	8c
.	16B-	16e	.
.	16A	16f	16a
.	16G	16g	16b-
.	8F	16a	8cc
.	.	16b-	.
.	8f	16cc	8a
.	.	16a	.
=11	=11	=11	=11
2r	16d	16b-	8ff
.	16e	16cc	.
.	16d	16b-	8f
.	16c	16a	.
.	16B-	16g	8r
.	16c	16a	.
.	16B-	16g	8dd
.	16A	16f	.
=12	=12	=12	=12
2r	16G	8.e	16b-
.	16A	.	16cc
.	16G	.	16b-
.	16F	16f	16a
.	8E	16g	16g
.	.	16a	16f
.	8c	16b-	8e
.	.	16g	.
=13	=13	=13	=13
2F	16A	8f	16f
.	16G	.	16e
.	16A	8c	16f
.	16B-	.	16g
.	8c	8r	16a
.	.	.	16g
.	8f	8c	16a
.	.	.	16b-
=14	=14	=14	=14
16E	16g	16e	16cc
16F	16a	16d	16b
16E	16g	16e	16cc
16D	16f	16f	16dd
8C	16e	16g	16ee
.	16d	16f	16ff
8c	16c	16e	16gg
.	16e	16g	16ee
=15	=15	=15	=15
16A	16a	16cc	16ff
16B-	16b-	16dd	16gg
16A	16a	16cc	16ff
16G	16g	16b	16ee
16F	16f	16a	16dd
16G	16g	16b	16ee
16F	16f	16a	16dd
16E	16e	16g	16cc
=16	=16	=16	=16
16D	16d	16f	16b
16E	16e	16g	16cc
16D	16d	16f	16b
16C	16c	16e	16a
8BB	8B	16d	8g
.	.	16c	.
8G	8g	16B	8ff
.	.	16d	.
=17	=17	=17	=17
8C	16c	16e	4ee
.	16d	16f	.
4c	16e	16g	.
.	16c	16e	.
.	16d	16f	4r
.	16f	16a	.
[8B	16e	16g	.
.	16d	16f	.
=18	=18	=18	=18
8B]	16c	16e	2r
.	16e	16g	.
4A	16d	16f	.
.	16c	16e	.
.	16B	16d	.
.	16d	16f	.
8G#	16c	16e	.
.	16B	16d	.
=19	=19	=19	=19
8G	8e	16c#	2r
.	.	16A	.
8F	4d	16d	.
.	.	16f	.
8E	.	16g	.
.	.	16b-	.
8A	8c#	16a	.
.	.	16g	.
=20	=20	=20	=20
4D	16d	4f	2aa
.	16e	.	.
.	16f	.	.
.	16d	.	.
4C	16e	4r	.
.	16d	.	.
.	16e	.	.
.	16A	.	.
=21	=21	=21	=21
4BB-	16d	2r	16ff
.	16c#	.	16gg
.	16d	.	16ff
.	16e	.	16ee
8r	16f	.	8dd
.	16g	.	.
8F	16a	.	8ddd
.	16f	.	.
=22	=22	=22	=22
8.G	4d	2r	16bb-
.	.	.	16ccc
.	.	.	16bb-
16A	.	.	16aa
16B-	8.d	.	16gg
16c	.	.	16aa
16B-	.	.	16gg
16A	16c	.	16ff
=23	=23	=23	=23
16G	16B-	2r	16ee
16A	16c	.	16ff
16G	16B-	.	16ee
16F	16A	.	16dd
8E	16G	.	8cc#
.	16e	.	.
8AA	16c#	.	8aa
.	16e	.	.
=24	=24	=24	=24
8.D	8A	2dd	8ff
.	16f#	.	8dd
16E	16g	.	.
16F#	16a	.	8r
16G	16b-	.	.
8A	8cc	.	8ff#
=25	=25	=25	=25
4G	8r	16b-	8gg
.	.	16cc	.
.	16d	16b-	8g
.	16c	16a	.
16GG	16B-	8g	8r
16AA	16c	.	.
16BB-	16d	8gg	8dd
16GG	16B-	.	.
=26	=26	=26	=26
2C	4c	16ee-	8g
.	.	16ff	.
.	.	16ee-	8e-
.	.	16dd	.
.	4r	16cc	8r
.	.	16dd	.
.	.	16cc	16ee-
.	.	16b-	16dd
=27	=27	=27	=27
2D	2r	16a	16cc
.	.	16b-	16dd
.	.	16a	16cc
.	.	16g	16b-
.	.	8f#	16a
.	.	.	16g
.	.	8dd	16f#
.	.	.	16a
=28	=28	=28	=28
4G	2r	8b-	16g
.	.	.	16b-
.	.	8g	16dd
.	.	.	16b-
16r	.	8r	4ee-
16G	.	.	.
16B-	.	8ee-	.
16G	.	.	.
=29	=29	=29	=29
4A	2f	8cc	16r
.	.	.	16cc
.	.	8a	16ee-
.	.	.	16cc
16r	.	8r	4ff
16A	.	.	.
16c	.	8ff	.
16A	.	.	.
=30	=30	=30	=30
4B-	16d	16ff	8r
.	16e-	16gg	.
.	16d	16ff	8b-
.	16c	16ee-	.
8r	8B-	8dd	16ff
.	.	.	16ee-
8D	8b-	8ff	16dd
.	.	.	16cc
=31	=31	=31	=31
2E-	16g	8.ee-	16b-
.	16a	.	16cc
.	16g	.	16b-
.	16f	16dd	16a
.	16e-	16cc	16g
.	16f	16dd	16a
.	16e-	16cc	16g
.	16d	16b-	16f
=32	=32	=32	=32
[2F	16c	16a	16e-
.	16d	16b-	16f
.	16c	16cc	16e-
.	16B-	16dd	16d
.	8A	8ee-	8c
.	8f	8a	8cc
=33	=33	=33	=33
2F]	16f	8.b-	8.dd
.	16g	.	.
.	16f	.	.
.	16e-	16cc	16ee-
.	16d	8dd	8ff
.	16e-	.	.
.	16d	8dd	8ff
.	16c	.	.
=34	=34	=34	=34
[2G	16B	4.dd	4.ff
.	16c	.	.
.	16B	.	.
.	16A	.	.
.	8G	.	.
.	8g	8b	8dd
=35	=35	=35	=35
2G]	16g	8.cc	8.ee-
.	16a-	.	.
.	16g	.	.
.	16f	16dd	16ff
.	16e-	8ee-	8gg
.	16f	.	.
.	16e-	8ee-	8gg
.	16d	.	.
=36	=36	=36	=36
2A	16c#	4.ee	4.gg
.	16d	.	.
.	16c#	.	.
.	16B	.	.
.	8A	.	.
.	8a	8cc#	8ee
=37	=37	=37	=37
4D	4d	4dd	16ff
.	.	.	16aa
.	.	.	16bb-
.	.	.	16aa
4r	4d	8r	16bb-
.	.	.	16aa
.	.	[8b-	16gg
.	.	.	16ff
=38	=38	=38	=38
2r	4c#	8b-]	16ee
.	.	.	16ee
.	.	4e	16gg
.	.	.	16bb-
.	4c	.	16aa
.	.	.	16gg
.	.	[8a	16ff
.	.	.	16ee
=39	=39	=39	=39
2r	4B	8a]	16dd
.	.	.	16dd
.	.	4d	16ff
.	.	.	16aa
.	8B-	.	16gg
.	.	.	16ff
.	8g	16g	16ee
.	.	16f	16dd
=40	=40	=40	=40
2A	16g	8.e	8.cc#
.	16f	.	.
.	16e	.	.
.	16d	16f	16dd
.	16c#	16g	16ee
.	16d	16f	16dd
.	16e	16e	16cc#
.	16c#	16g	16ee
=41	=41	=41	=41
16F	8d	8f	4dd
16G	.	.	.
16F	8A	16d	.
16E	.	16e	.
8D	8r	16f	4r
.	.	16g	.
8d	8f	8a	.
=42	=42	=42	=42
16B-	8g	8r	2r
16c	.	.	.
16B-	8G	16dd	.
16A	.	16cc	.
16G	8r	16b-	.
16A	.	16cc	.
16G	8d	16b-	.
16F	.	16a	.
=43	=43	=43	=43
16E	8g	16g	2r
16F	.	16a	.
16E	8c#	16g	.
16D	.	16f	.
8C#	8r	16e	.
.	.	16f	.
8A	8c#	16g	.
.	.	16e	.
=44	=44	=44	=44
8D	4d	16f	2r
.	.	16e	.
8DD	.	16f	.
.	.	16d	.
8r	16f	16dd	.
.	16e	16cc	.
8D	16d	16b	.
.	16c	16a	.
=45	=45	=45	=45
8E	16B	16g#	2r
.	16A	16a	.
8EE	16G#	16b	.
.	16A	16a	.
8r	16B	16g#	.
.	16d	16f	.
8E	16c	16e	.
.	16B	16d	.
=46	=46	=46	=46
4AA	16c	4c	2ee
.	16B	.	.
.	16c	.	.
.	16A	.	.
4GG#	16B	4r	.
.	16A	.	.
.	16B	.	.
.	16b	.	.
=47	=47	=47	=47
4AA	8e	2r	16cc
.	.	.	16dd
.	16A	.	16cc
.	16B	.	16b
8r	16c	.	8a
.	16d	.	.
8C	16e	.	8aa
.	16c	.	.
=48	=48	=48	=48
8D	8A	2r	16ff
.	.	.	16gg
8DD	16a	.	16ff
.	16g	.	16ee
8r	16f	.	16dd
.	16g	.	16ee
8D	16f	.	16dd
.	16e	.	16cc
=49	=49	=49	=49
8E	16d	2r	16b
.	16e	.	16cc
8EE	16d	.	16b
.	16c	.	16a
8r	16B	.	8g#
.	16A	.	.
8E	16G#	.	8ee
.	16B	.	.
=50	=50	=50	=50
8A	8A	2r	16cc
.	.	.	16dd
8AA	16e	.	16cc
.	16d	.	16b
8r	16c	.	8a
.	16B	.	.
8F#	8A	.	8dd
=51	=51	=51	=51
8G	8G	2r	16b-
.	.	.	16cc
8GG	16d	.	16b-
.	16c	.	16a
8r	16B-	.	8g
.	16A	.	.
8E	8G	.	8cc
=52	=52	=52	=52
4F	16A	2cc	8a
.	16G	.	.
.	16A	.	8f
.	16B-	.	.
4E	16G	.	8r
.	16e	.	.
.	16g	.	8g
.	16e	.	.
=53	=53	=53	=53
4F	4c	16a	8f
.	.	16b-	.
.	.	16a	8ff
.	.	16g	.
4AA	4r	8f	8r
.	.	8ff	8cc
=54	=54	=54	=54
8BB-	2r	16dd	4f
.	.	16ee	.
16B-	.	16dd	.
16A	.	16cc	.
16G	.	16b-	4g
16A	.	16cc	.
16G	.	16b-	.
16F	.	16a	.
=55	=55	=55	=55
16E	2r	16g	8r
16F	.	16a	.
16E	.	16g	8c
16D	.	16f	.
16C	.	8e	16g
16D	.	.	16f
16E	.	8cc	16g
16C	.	.	16e
=56	=56	=56	=56
4F	2f	16a	16cc
.	.	16b-	16dd
.	.	16a	16cc
.	.	16g	16b-
4r	.	[4f	16a
.	.	.	16b-
.	.	.	16cc
.	.	.	16a
=57	=57	=57	=57
2r	16d	16f]	[4b-
.	16e-	16g	.
.	16d	16f	.
.	16c	16e-	.
.	8B-	4d	16b-]
.	.	.	16cc
.	8b-	.	16dd
.	.	.	16b-
=58	=58	=58	=58
2r	16g	16b-	8.ee-
.	16a	16cc	.
.	16g	16b-	.
.	16f	16a	16dd
.	16e-	4g	16cc
.	16f	.	16dd
.	16e-	.	16cc
.	16d	.	16b-
=59	=59	=59	=59
2D	16c	8.f#	16a
.	16d	.	16b-
.	16c	.	16a
.	16B-	16g	16g
.	8A	16a	16f#
.	.	16b-	16g
.	8d	16cc	16a
.	.	16a	16f#
=60	=60	=60	=60
16BB-	2d	16dd	8g
16C	.	16ee-	.
16BB-	.	16dd	8gg
16AA	.	16cc	.
8GG	.	8b-	16r
.	.	.	16b-
8G	.	8G	16dd
.	.	.	16b-
=61	=61	=61	=61
16E-	2r	4r	8cc
16F	.	.	.
16E-	.	.	8g
16D	.	.	.
16C	.	8cc	16r
16D	.	.	16ff
16C	.	8g	16ee-
16BB-	.	.	16dd
=62	=62	=62	=62
16AA	2d	16r	16cc
16BB-	.	16G	16dd
16AA	.	16A	16cc
16GG	.	16B-	16b-
8FF#	.	16c	8a
.	.	16A	.
8D	.	16f#	8d
.	.	16d	.
=63	=63	=63	=63
8GG	16B-	8b-	8r
.	16c	.	.
8E-	16B-	16g	8b-
.	16A	16a	.
8r	8G	16b-	8ee-
.	.	16a	.
8GG	16e-	16g	8e-
.	16d	16f	.
=64	=64	=64	=64
8AA	16c	8e-	8r
.	16d	.	.
8F	16c	16a	8cc
.	16B-	16b-	.
8r	8A	16cc	8ff
.	.	16b-	.
8AA	16f	16a	8f
.	16e-	16g	.
=65	=65	=65	=65
4BB-	4d	4f	8r
.	.	.	16dd
.	.	.	16cc
4r	8r	8r	16b-
.	.	.	16a
.	8c	8e-	16g
.	.	.	16f#
=66	=66	=66	=66
2r	4B-	4d	8g
.	.	.	16dd
.	.	.	16cc
.	8r	8r	16b-
.	.	.	16a
.	8c	8e-	16g
.	.	.	16f#
=67	=67	=67	=67
2r	4B-	4d	16g
.	.	.	16b-
.	.	.	16dd
.	.	.	16gg
.	8r	8r	16bb-
.	.	.	16aa
.	8B	8dd	16gg
.	.	.	16ff
=68	=68	=68	=68
2r	4c	[2cc	16ee
.	.	.	16cc
.	.	.	16ee
.	.	.	16gg
.	8e	.	16bb-
.	.	.	16gg
.	8f	.	16aa
.	.	.	16ff
=69	=69	=69	=69
2r	4c	2cc_	16ee
.	.	.	16cc
.	.	.	16ee
.	.	.	16gg
.	8e	.	16bb-
.	.	.	16gg
.	8f	.	16aa
.	.	.	16ff
=70	=70	=70	=70
2r	4c	16cc]	4ee
.	.	16c	.
.	.	16e	.
.	.	16g	.
.	8E	16b-	4r
.	.	16g	.
.	8F	16a	.
.	.	16f	.
=71	=71	=71	=71
2r	4C	16e	2r
.	.	16c	.
.	.	16e	.
.	.	16g	.
.	8E	16b-	.
.	.	16g	.
.	8F	16a	.
.	.	16f	.
=72	=72	=72	=72
2C	4G	4e	2r
.	4r	4r	.
=73	=73	=73	=73
16AA	2r	2r	2r
16BB-	.	.	.
16AA	.	.	.
16GG	.	.	.
8FF	.	.	.
8F	.	.	.
=74	=74	=74	=74
16D	2F	2r	2r
16E	.	.	.
16D	.	.	.
16C	.	.	.
16BB-	.	.	.
16C	.	.	.
16BB-	.	.	.
16AA	.	.	.
=75	=75	=75	=75
16GG	16E	2cc	2r
16AA	16F	.	.
16GG	16E	.	.
16FF	16D	.	.
16EE	8C	.	.
16DD	.	.	.
16EE	8c	.	.
16CC	.	.	.
=76	=76	=76	=76
2FF	16c	16a	2r
.	16d	16b-	.
.	16c	16a	.
.	16B-	16g	.
.	16A	8f	.
.	16B-	.	.
.	16c	8ff	.
.	16A	.	.
=77	=77	=77	=77
8.BB-	4B-	16dd	2ff
.	.	16ee	.
.	.	16dd	.
16C	.	16cc	.
8.D	4r	16b-	.
.	.	16cc	.
.	.	16b-	.
16BB	.	16a	.
=78	=78	=78	=78
[4C	2r	16g	16ee
.	.	16a	16ff
.	.	16g	16ee
.	.	16f	16dd
16C]	.	16e	8cc
16D	.	16f	.
16E	.	16g	8ccc
16C	.	16e	.
=79	=79	=79	=79
8F	2cc	4f	16aa
.	.	.	16bb-
8FF	.	.	16aa
.	.	.	16gg
8r	.	8a	16ff
.	.	.	16gg
8F	.	8A	16ff
.	.	.	16ee
=80	=80	=80	=80
8B-	16b-	8r	16dd
.	16cc	.	16ee
8BB-	16b-	8f	16dd
.	16a	.	16cc
8r	16g	8dd	8b-
.	16a	.	.
8B-	16g	8d	8bb-
.	16f	.	.
=81	=81	=81	=81
8E	16e	8r	16gg
.	16f	.	16aa
8EE	16e	8B-	16gg
.	16d	.	16ff
8r	8c	8g	16ee
.	.	.	16ff
8E	8cc	8G	16ee
.	.	.	16dd
=82	=82	=82	=82
8A	16a	8r	16cc
.	16b-	.	16dd
8AA	16a	8e	16cc
.	16g	.	16b-
8r	16f	8cc	8a
.	16g	.	.
8A	16f	8c	8aa
.	16e	.	.
=83	=83	=83	=83
8D	16d	8r	16ff
.	16e	.	16gg
8DD	16d	8a	16ff
.	16c	.	16ee
8r	8B-	8ff	16dd
.	.	.	16ee
8D	8b-	8f	16dd
.	.	.	16cc
=84	=84	=84	=84
8G	16g	8r	16b-
.	16a	.	16cc
8GG	16g	8d	16b-
.	16f	.	16a
8r	16e	8b-	8g
.	16f	.	.
8G	16e	8B-	8gg
.	16d	.	.
=85	=85	=85	=85
8C	4c	2g	16ee
.	.	.	16ff
8CC	.	.	16ee
.	.	.	16dd
8r	4r	.	16cc
.	.	.	16dd
8C	.	.	16cc
.	.	.	16b-
=86	=86	=86	=86
4F	2r	16f	4a
.	.	16g	.
.	.	16f	.
.	.	16e	.
4G	.	8d	8.b
.	.	8g	.
.	.	.	32a
.	.	.	32b
=87	=87	=87	=87
4C	2c	16e	8cc
.	.	16g	.
.	.	16cc	8c
.	.	16g	.
4r	.	16ee	8r
.	.	16dd	.
.	.	16cc	8ee
.	.	16b-	.
=88	=88	=88	=88
2r	16d	8a	8ff
.	16c	.	.
.	16d	16f	8f
.	16e	16g	.
.	8f	16a	8r
.	.	16b-	.
.	8F	16cc	8a
.	.	16a	.
=89	=89	=89	=89
2r	16A	16f	8cc
.	16G	16e	.
.	16A	16f	8c
.	16B-	16g	.
.	16c	16a	8r
.	16B-	16g	.
.	16c	16a	8ff
.	16d	16b	.
=90	=90	=90	=90
2r	16e	4cc	16ee
.	16d	.	16ff
.	16e	.	16gg
.	16f	.	16aa
.	8g	16b	8dd
.	.	16cc	.
.	8B	16dd	8gg
.	.	16f	.
=91	=91	=91	=91
2r	8c	16e	16cc
.	.	16f	16dd
.	16B-	16g	16ee
.	16A	16a	16ff
.	16G	8d	8b-
.	16F	.	.
.	16E	16g	8cc
.	16C	16e	.
=92	=92	=92	=92
2FF	8F	4f	8a
.	8f	.	8aa
.	8f	4r	8aa
.	8f	.	8aa
=93	=93	=93	=93
16AA	8.f	2r	8.aa
16GG	.	.	.
16AA	.	.	.
16BB-	32e	.	32gg
.	32f	.	32aa
8C	4e	.	4gg
8CC	.	.	.
=94	=94	=94	=94
16EE	16g	2cc	2r
16DD	16f	.	.
16EE	16g	.	.
16FF	16a	.	.
16GG	16e	.	.
16FF	16d	.	.
16GG	16e	.	.
16AA	16f	.	.
=95	=95	=95	=95
16BB-	8.f	16dd	2ff
16AA	.	16cc	.
16BB-	.	16dd	.
16C	16b-	16ee	.
8D	16a	8ff	.
.	16g	.	.
8DD	16f	8f	.
.	16e	.	.
=96	=96	=96	=96
8r	8d	8r	16aa
.	.	.	16gg
8GG	8G	8f	16aa
.	.	.	16bb
4C	16G	16e	8ccc
.	16F	16d	.
.	16G	16e	8cc
.	16E	16c	.
=97	=97	=97	=97
2r	8C	16cc	16ee
.	.	16b	16dd
.	8c	16cc	16ee
.	.	16dd	16ff
.	8.B-	16ee	16gg
.	.	16dd	16ff
.	.	16ee	16gg
.	16A	16ff	16aa
=98	=98	=98	=98
2r	16G	[4gg	16bb-
.	16F	.	16aa
.	16G	.	16bb-
.	16A	.	16ccc
.	8B-	16gg]	8ddd
.	.	16dd	.
.	8c	16cc	8ee
.	.	16b-	.
=99	=99	=99	=99
2F	8c	4a	8ff
.	8F	.	8cc
.	8r	4r	8a
.	8a	.	8f
=100	=100	=100	=100
16D	8b-	2r	8r
16E-	.	.	.
16D	8B-	.	8ff
16C	.	.	.
8BB-	8r	.	8dd
8B-	8d	.	8b-
=101	=101	=101	=101
16A	16c	2f	2r
16B-	16d	.	.
16A	16c	.	.
16G	16B-	.	.
8F	8A	.	.
8AA	8c	.	.
=102	=102	=102	=102
16BB-	8F	16d	2r
16AA	.	16e-	.
16BB-	16f	16d	.
16C	16e-	16c	.
8D	16d	8B-	.
.	16e-	.	.
8BB-	16f	8b-	.
.	16d	.	.
=103	=103	=103	=103
8F	16c	16a	2ff
.	16d	16b-	.
8FF	16c	16a	.
.	16B-	16g	.
8r	4A	8f	.
8F	.	8cc	.
=104	=104	=104	=104
8B-	2f	8b-	16dd
.	.	.	16ee-
8BB-	.	16f	16dd
.	.	16e-	16cc
4r	.	8d	8b-
.	.	8dd	8bb-
=105	=105	=105	=105
8r	16e-	16cc	8aa
.	16f	16dd	.
8F	16e-	16cc	8f
.	16d	16b-	.
8F	16c	16a	8r
.	16d	16b-	.
8FF	16e-	16cc	8aa
.	16c	16a	.
=106	=106	=106	=106
8r	16f	16dd	8bb-
.	16g	16ee-	.
8F	16f	16dd	8f
.	16e-	16cc	.
8F	16d	16b-	8r
.	16e-	16cc	.
8FF	16f	16dd	8bb-
.	16d	16b-	.
=107	=107	=107	=107
8r	16c	16ee-	8ccc
.	16B-	16dd	.
8F	16A	16cc	8f
.	16B-	16b-	.
8F	16c	16a	8r
.	16d	16b-	.
8FF	8e-	16cc	8ccc
.	.	16a	.
=108	=108	=108	=108
4F	16d	16b-	8ddd
.	16e-	16cc	.
.	16f	16dd	8bb-
.	16d	16b-	.
4FF	16A	16cc	8eee-
.	16B-	16dd	.
.	16c	16ee-	8ee-
.	16A	16cc	.
=109	=109	=109	=109
4F	16d	16b-	8dd
.	16e-	16cc	.
.	16f	16dd	8ddd
.	16d	16b-	.
4FF	16f	16a	8ccc
.	16g	16b-	.
.	16a	16cc	8ff
.	16f	16a	.
=110	=110	=110	=110
4BB-	16g	16b-	8dd
.	16a	16cc	.
.	16b-	16dd	8gg
.	16g	16b-	.
4C	16e	16g	8g
.	16f	16a	.
.	16g	16b-	8ee
.	16e	16g	.
=111	=111	=111	=111
2F	2f	2f	2f
=112	=112	=112	=112
16E	16e	16e	16e
16F	16f	16f	16f
16E	16e	16e	16e
16D	16d	16d	16d
8C	8c	8c	8c
8c	8cc	8cc	8cc
=113	=113	=113	=113
16A	16a	16a	16a
16B-	16b-	16b-	16b-
16A	16a	16a	16a
16G	16g	16g	16g
8F	8f	8f	8f
8f	8ff	8ff	8ff
=114	=114	=114	=114
16d	16dd	16dd	16dd
16e	16ee	16ee	16ee
16d	16dd	16dd	16dd
16c	16cc	16cc	16cc
16B-	16b-	16b-	16b-
16c	16cc	16cc	16cc
16B-	16b-	16b-	16b-
16A	16a	16a	16a
=115	=115	=115	=115
16G	16g	16g	16g
16A	16a	16a	16a
16G	16g	16g	16g
16F	16f	16f	16f
8E	8e	8e	8e
8c	8cc	8cc	8cc
=116	=116	=116	=116
16A	16a	16a	16a
16B-	16b-	16b-	16b-
16A	16a	16a	16a
16G	16g	16g	16g
16F	16f	16f	16f
16G	16g	16g	16g
16F	16f	16f	16f
16E	16e	16e	16e
=117	=117	=117	=117
16D	16d	16d	16d
16E	16e	16e	16e
16D	16d	16d	16d
16C	16c	16c	16c
16BB-	16B-	16B-	16B-
16C	16c	16c	16c
16BB-	16B-	16B-	16B-
16AA	16A	16A	16A
=118	=118	=118	=118
4GG	4G	4G	4G
4C	4c	4cc 4e 4G	4ee 4cc 4g
=119	=119	=119	=119
4FF	4c	4cc 4f 4A	4ff 4cc 4f
4r	4r	4r	4r
==	==	==	==
*-	*-	*-	*-
!!!RWG1: This file contains only pitch and duration data.
!!!RWG2: Transposing instruments are not transposed.
!!!RWG3: Spines may have incompatible meters.
!!!RWG4: Durations of rests and tied notes may be interpreted.
!!!RWG: Key is interpreted using the Humdrum key tool.
!!!AFT: stage1
!!!END: 1997/04/15
!!!KEY: 130412197
!!!EMD: Converted from MuseData to Humdrum Dec 16, 2000, by Andreas Kornstaedt using muse2kern.
!!!EMD: Manual editing by Craig Sapp, Nov 2001
